;FLAVOR:Marlin
;TIME:2600
;Filament used: 0.65923m
;Layer height: 0.1
;Generated with Cura_SteamEngine 3.6.0
M104 S200
M105
M109 S200
M82 ;absolute extrusion mode
G28 ;Home
G1 Z15.0 F6000 ;Move the platform down 15mm
;Prime the extruder
G92 E0
G1 F200 E3
G92 E0
G92 E0
G1 F1500 E-6.5
;LAYER_COUNT:74
;LAYER:0
M107
G0 F3600 X140.052 Y162.474 Z0.3
;TYPE:SKIRT
G1 F1500 E0
G1 F1800 X147.151 Y156.425 E0.17544
G1 X147.777 Y155.944 E0.19029
G1 X148.371 Y155.572 E0.20347
G1 X148.684 Y155.395 E0.21024
G1 X149.39 Y155.042 E0.22508
G1 X149.818 Y154.869 E0.23377
G1 X158.545 Y151.642 E0.40879
G1 X159.298 Y151.406 E0.42364
G1 X160.072 Y151.247 E0.4385
G1 X160.858 Y151.168 E0.45336
G1 X161.647 Y151.168 E0.4682
G1 X162.433 Y151.248 E0.48306
G1 X163.206 Y151.407 E0.49791
G1 X163.96 Y151.644 E0.51277
G1 X164.686 Y151.955 E0.52763
G1 X165.376 Y152.339 E0.54248
G1 X166.024 Y152.79 E0.55734
G1 X166.623 Y153.304 E0.57218
G1 X167.167 Y153.876 E0.58703
G1 X167.651 Y154.501 E0.6019
G1 X168.069 Y155.171 E0.61676
G1 X168.417 Y155.88 E0.63161
G1 X168.691 Y156.62 E0.64646
G1 X168.89 Y157.384 E0.66131
G1 X169.01 Y158.165 E0.67617
G1 X169.05 Y158.958 E0.69111
G1 X169.05 Y172.205 E0.94029
G1 X169.01 Y172.994 E0.95515
G1 X168.891 Y173.774 E0.96999
G1 X168.693 Y174.539 E0.98486
G1 X168.419 Y175.279 E0.9997
G1 X168.071 Y175.988 E1.01456
G1 X167.653 Y176.659 E1.02943
G1 X167.17 Y177.283 E1.04427
G1 X166.827 Y177.658 E1.05383
G1 X163.392 Y181.171 E1.14625
G1 X162.113 Y184.308 E1.20998
G1 X162.113 Y187.692 E1.27363
G1 X163.392 Y190.829 E1.33736
G1 X166.827 Y194.342 E1.42978
G1 X167.35 Y194.933 E1.44462
G1 X167.81 Y195.575 E1.45948
G1 X168.203 Y196.26 E1.47433
G1 X168.525 Y196.981 E1.48919
G1 X168.772 Y197.731 E1.50404
G1 X168.942 Y198.502 E1.51889
G1 X169.033 Y199.287 E1.53376
G1 X169.05 Y199.795 E1.54332
G1 X169.05 Y213.042 E1.7925
G1 X169.01 Y213.831 E1.80736
G1 X168.891 Y214.611 E1.8222
G1 X168.693 Y215.376 E1.83707
G1 X168.419 Y216.116 E1.85191
G1 X168.071 Y216.825 E1.86677
G1 X167.653 Y217.496 E1.88164
G1 X167.17 Y218.12 E1.89648
G1 X166.627 Y218.693 E1.91133
G1 X166.028 Y219.208 E1.92619
G1 X165.38 Y219.659 E1.94104
G1 X164.689 Y220.043 E1.95591
G1 X163.964 Y220.355 E1.97076
G1 X163.211 Y220.592 E1.98561
G1 X162.437 Y220.751 E2.00047
G1 X161.652 Y220.832 E2.01532
G1 X160.862 Y220.832 E2.03018
G1 X160.076 Y220.753 E2.04504
G1 X159.303 Y220.595 E2.05988
G1 X158.542 Y220.357 E2.07488
G1 X149.755 Y217.104 E2.25113
G1 X149.029 Y216.793 E2.26598
G1 X148.373 Y216.43 E2.28009
G1 X148.071 Y216.244 E2.28676
G1 X147.42 Y215.797 E2.30161
G1 X147.099 Y215.537 E2.30938
G1 X140.049 Y209.523 E2.48369
G1 X139.475 Y208.981 E2.49854
G1 X138.958 Y208.383 E2.51341
G1 X138.344 Y207.468 E2.53414
G1 X133.623 Y199.232 E2.71271
G1 X133.265 Y198.528 E2.72757
G1 X132.981 Y197.791 E2.74243
G1 X132.707 Y196.699 E2.7636
G1 X131.068 Y187.346 E2.94222
G1 X130.971 Y186.563 E2.95706
G1 X130.954 Y185.773 E2.97193
G1 X131.068 Y184.654 E2.99308
G1 X132.707 Y175.301 E3.1717
G1 X132.883 Y174.531 E3.18656
G1 X133.135 Y173.782 E3.20142
G1 X133.623 Y172.768 E3.22259
G1 X138.344 Y164.532 E3.40116
G1 X138.771 Y163.868 E3.41601
G1 X139.263 Y163.25 E3.43087
G1 X140.052 Y162.474 E3.45169
G0 F3600 X140.312 Y162.778
G1 F1800 X147.411 Y156.729 E3.62713
G1 X148.021 Y156.262 E3.64158
G1 X148.567 Y155.921 E3.65369
G1 X148.88 Y155.744 E3.66045
G1 X149.569 Y155.4 E3.67494
G1 X149.957 Y155.244 E3.6828
G1 X158.684 Y152.017 E3.85783
G1 X159.418 Y151.788 E3.87229
G1 X160.172 Y151.637 E3.88675
G1 X160.938 Y151.565 E3.90123
G1 X161.707 Y151.572 E3.91569
G1 X162.471 Y151.659 E3.93016
G1 X163.222 Y151.826 E3.94463
G1 X163.952 Y152.069 E3.9591
G1 X164.652 Y152.386 E3.97356
G1 X165.316 Y152.775 E3.98803
G1 X165.936 Y153.231 E4.00251
G1 X166.505 Y153.748 E4.01697
G1 X167.017 Y154.321 E4.03142
G1 X167.467 Y154.945 E4.0459
G1 X167.85 Y155.612 E4.06036
G1 X168.162 Y156.315 E4.07483
G1 X168.399 Y157.047 E4.0893
G1 X168.559 Y157.799 E4.10377
G1 X168.64 Y158.564 E4.11824
G1 X168.65 Y158.958 E4.12565
G1 X168.65 Y172.205 E4.37483
G1 X168.61 Y172.973 E4.3893
G1 X168.491 Y173.733 E4.40377
G1 X168.293 Y174.476 E4.41823
G1 X168.019 Y175.195 E4.43271
G1 X167.672 Y175.881 E4.44717
G1 X167.256 Y176.528 E4.46164
G1 X166.541 Y177.379 E4.48255
G1 X163.051 Y180.948 E4.57644
G1 X161.713 Y184.231 E4.64313
G1 X161.713 Y187.769 E4.70968
G1 X163.051 Y191.052 E4.77637
G1 X166.541 Y194.621 E4.87027
G1 X167.049 Y195.198 E4.88473
G1 X167.495 Y195.825 E4.8992
G1 X167.873 Y196.495 E4.91367
G1 X168.18 Y197.2 E4.92814
G1 X168.412 Y197.934 E4.94262
G1 X168.567 Y198.687 E4.95708
G1 X168.65 Y199.795 E4.97798
G1 X168.65 Y213.042 E5.22716
G1 X168.61 Y213.81 E5.24163
G1 X168.491 Y214.57 E5.2561
G1 X168.293 Y215.313 E5.27056
G1 X168.019 Y216.032 E5.28504
G1 X167.672 Y216.718 E5.2995
G1 X167.256 Y217.365 E5.31397
G1 X166.775 Y217.965 E5.32843
G1 X166.234 Y218.512 E5.3429
G1 X165.639 Y219 E5.35738
G1 X164.997 Y219.423 E5.37184
G1 X164.314 Y219.778 E5.38632
G1 X163.599 Y220.059 E5.40077
G1 X162.857 Y220.265 E5.41526
G1 X162.099 Y220.393 E5.42972
G1 X161.331 Y220.442 E5.44419
G1 X160.563 Y220.41 E5.45865
G1 X159.802 Y220.299 E5.47312
G1 X159.056 Y220.109 E5.4876
G1 X158.681 Y219.982 E5.49505
G1 X149.894 Y216.729 E5.6713
G1 X149.187 Y216.425 E5.68577
G1 X148.582 Y216.09 E5.69878
G1 X148.28 Y215.904 E5.70545
G1 X147.358 Y215.233 E5.7269
G1 X140.308 Y209.219 E5.90122
G1 X139.75 Y208.69 E5.91568
G1 X139.249 Y208.106 E5.93015
G1 X138.691 Y207.269 E5.94908
G1 X133.97 Y199.033 E6.12765
G1 X133.623 Y198.347 E6.14211
G1 X133.348 Y197.628 E6.15659
G1 X133.101 Y196.63 E6.17593
G1 X131.462 Y187.277 E6.35454
G1 X131.369 Y186.514 E6.369
G1 X131.355 Y185.745 E6.38347
G1 X131.462 Y184.723 E6.4028
G1 X133.101 Y175.37 E6.58141
G1 X133.273 Y174.62 E6.59589
G1 X133.522 Y173.892 E6.61036
G1 X133.97 Y172.967 E6.62969
G1 X138.691 Y164.731 E6.80827
G1 X139.108 Y164.084 E6.82275
G1 X139.589 Y163.485 E6.8372
G1 X140.312 Y162.778 E6.85622
G0 F3600 X140.571 Y163.083
G1 F1800 X147.67 Y157.034 E7.03166
G1 X148.264 Y156.58 E7.04572
G1 X148.764 Y156.269 E7.0568
G1 X149.077 Y156.092 E7.06356
G1 X149.747 Y155.759 E7.07763
G1 X150.095 Y155.619 E7.08469
G1 X158.822 Y152.392 E7.25971
G1 X159.537 Y152.171 E7.27379
G1 X160.271 Y152.027 E7.28786
G1 X161.016 Y151.962 E7.30193
G1 X161.764 Y151.977 E7.316
G1 X162.506 Y152.072 E7.33007
G1 X163.234 Y152.245 E7.34415
G1 X163.939 Y152.495 E7.35822
G1 X164.613 Y152.819 E7.37229
G1 X165.249 Y153.213 E7.38636
G1 X165.839 Y153.672 E7.40042
G1 X166.377 Y154.192 E7.41449
G1 X166.856 Y154.767 E7.42857
G1 X167.272 Y155.389 E7.44265
G1 X167.618 Y156.052 E7.45672
G1 X167.892 Y156.748 E7.47079
G1 X168.09 Y157.469 E7.48485
G1 X168.21 Y158.208 E7.49893
G1 X168.25 Y158.958 E7.51306
G1 X168.25 Y172.205 E7.76224
G1 X168.21 Y172.952 E7.77632
G1 X168.091 Y173.69 E7.79038
G1 X167.893 Y174.412 E7.80446
G1 X167.62 Y175.108 E7.81852
G1 X167.273 Y175.771 E7.8326
G1 X166.858 Y176.394 E7.84668
G1 X166.255 Y177.099 E7.86413
G1 X162.71 Y180.725 E7.95952
G1 X161.313 Y184.151 E8.02912
G1 X161.313 Y187.849 E8.09868
G1 X162.71 Y191.275 E8.16827
G1 X166.255 Y194.901 E8.26366
G1 X166.749 Y195.463 E8.27774
G1 X167.179 Y196.075 E8.29181
G1 X167.543 Y196.729 E8.30589
G1 X167.834 Y197.418 E8.31996
G1 X168.05 Y198.134 E8.33402
G1 X168.188 Y198.869 E8.34809
G1 X168.25 Y199.795 E8.36555
G1 X168.25 Y213.042 E8.61473
G1 X168.21 Y213.789 E8.6288
G1 X168.091 Y214.527 E8.64286
G1 X167.893 Y215.249 E8.65695
G1 X167.62 Y215.945 E8.67101
G1 X167.273 Y216.608 E8.68509
G1 X166.858 Y217.231 E8.69917
G1 X166.379 Y217.805 E8.71323
G1 X165.842 Y218.326 E8.7273
G1 X165.252 Y218.785 E8.74137
G1 X164.616 Y219.18 E8.75545
G1 X163.942 Y219.504 E8.76952
G1 X163.237 Y219.754 E8.78359
G1 X162.509 Y219.928 E8.79767
G1 X161.767 Y220.023 E8.81174
G1 X161.019 Y220.038 E8.82581
G1 X160.274 Y219.974 E8.83988
G1 X159.54 Y219.83 E8.85395
G1 X158.82 Y219.607 E8.86812
G1 X150.033 Y216.354 E9.04438
G1 X149.346 Y216.057 E9.05846
G1 X148.792 Y215.749 E9.07038
G1 X148.49 Y215.563 E9.07705
G1 X147.618 Y214.929 E9.09733
G1 X140.568 Y208.915 E9.27164
G1 X140.026 Y208.399 E9.28572
G1 X139.541 Y207.829 E9.2998
G1 X139.038 Y207.07 E9.31692
G1 X134.317 Y198.834 E9.49549
G1 X133.98 Y198.166 E9.50957
G1 X133.717 Y197.466 E9.52363
G1 X133.495 Y196.561 E9.54116
G1 X131.856 Y187.208 E9.71978
G1 X131.766 Y186.466 E9.73384
G1 X131.757 Y185.718 E9.74791
G1 X131.856 Y184.792 E9.76543
G1 X133.495 Y175.439 E9.94404
G1 X133.663 Y174.71 E9.95812
G1 X133.909 Y174.003 E9.9722
G1 X134.317 Y173.166 E9.98971
G1 X139.038 Y164.93 E10.16828
G1 X139.444 Y164.302 E10.18235
G1 X139.915 Y163.72 E10.19643
G1 X140.571 Y163.083 E10.21363
G0 F3600 X140.83 Y163.387
G1 F1800 X147.929 Y157.338 E10.38907
G1 X148.507 Y156.898 E10.40274
G1 X148.961 Y156.617 E10.41278
G1 X149.274 Y156.44 E10.41955
G1 X150.234 Y155.995 E10.43945
G1 X158.961 Y152.768 E10.61447
G1 X159.655 Y152.554 E10.62813
G1 X160.369 Y152.417 E10.64181
G1 X161.093 Y152.36 E10.65547
G1 X161.819 Y152.383 E10.66913
G1 X162.538 Y152.485 E10.68279
G1 X163.241 Y152.666 E10.69645
G1 X163.921 Y152.922 E10.71012
G1 X164.568 Y153.253 E10.72379
G1 X165.175 Y153.652 E10.73745
G1 X165.734 Y154.115 E10.7511
G1 X166.239 Y154.637 E10.76477
G1 X166.684 Y155.211 E10.77843
G1 X167.062 Y155.831 E10.79209
G1 X167.371 Y156.489 E10.80576
G1 X167.605 Y157.176 E10.81941
G1 X167.762 Y157.886 E10.83309
G1 X167.85 Y158.958 E10.85332
G1 X167.85 Y172.205 E11.10251
G1 X167.81 Y172.93 E11.11617
G1 X167.691 Y173.647 E11.12984
G1 X167.493 Y174.346 E11.1435
G1 X167.22 Y175.019 E11.15717
G1 X166.875 Y175.658 E11.17083
G1 X166.461 Y176.255 E11.18449
G1 X165.969 Y176.819 E11.19857
G1 X162.37 Y180.5 E11.29541
G1 X160.913 Y184.074 E11.36801
G1 X160.913 Y187.926 E11.44047
G1 X162.37 Y191.5 E11.51307
G1 X165.969 Y195.181 E11.60991
G1 X166.447 Y195.727 E11.62356
G1 X166.863 Y196.323 E11.63723
G1 X167.21 Y196.961 E11.65089
G1 X167.486 Y197.633 E11.66455
G1 X167.686 Y198.331 E11.67821
G1 X167.808 Y199.047 E11.69187
G1 X167.85 Y199.795 E11.70597
G1 X167.85 Y213.042 E11.95515
G1 X167.81 Y213.767 E11.96881
G1 X167.691 Y214.484 E11.98248
G1 X167.493 Y215.183 E11.99615
G1 X167.22 Y215.856 E12.00981
G1 X166.875 Y216.495 E12.02347
G1 X166.461 Y217.092 E12.03713
G1 X165.985 Y217.64 E12.05079
G1 X165.451 Y218.133 E12.06446
G1 X164.866 Y218.563 E12.07812
G1 X164.237 Y218.927 E12.09179
G1 X163.572 Y219.22 E12.10546
G1 X162.879 Y219.438 E12.11912
G1 X162.167 Y219.578 E12.13277
G1 X161.443 Y219.639 E12.14644
G1 X160.717 Y219.62 E12.1601
G1 X159.997 Y219.522 E12.17377
G1 X158.959 Y219.231 E12.19405
G1 X150.172 Y215.978 E12.3703
G1 X149.505 Y215.689 E12.38397
G1 X149.002 Y215.409 E12.3948
G1 X148.7 Y215.223 E12.40147
G1 X147.878 Y214.624 E12.4206
G1 X140.828 Y208.61 E12.59491
G1 X140.302 Y208.109 E12.60858
G1 X139.834 Y207.553 E12.62225
G1 X139.385 Y206.871 E12.63761
G1 X134.664 Y198.635 E12.81618
G1 X134.338 Y197.986 E12.82984
G1 X134.085 Y197.305 E12.84351
G1 X133.889 Y196.492 E12.85924
G1 X132.25 Y187.139 E13.03785
G1 X132.164 Y186.418 E13.05151
G1 X132.158 Y185.692 E13.06517
G1 X132.25 Y184.861 E13.0809
G1 X133.889 Y175.508 E13.25951
G1 X134.054 Y174.8 E13.27319
G1 X134.295 Y174.115 E13.28685
G1 X134.664 Y173.365 E13.30257
G1 X139.385 Y165.129 E13.48114
G1 X139.78 Y164.519 E13.49481
G1 X140.24 Y163.957 E13.50847
G1 X140.83 Y163.387 E13.5239
G0 F3600 X141.09 Y163.692
G1 F1800 X148.189 Y157.643 E13.69934
G1 X148.75 Y157.217 E13.71259
G1 X149.158 Y156.965 E13.72161
G1 X149.471 Y156.788 E13.72838
G1 X150.373 Y156.37 E13.74708
G1 X159.1 Y153.143 E13.9221
G1 X159.773 Y152.937 E13.93534
G1 X160.465 Y152.808 E13.94858
G1 X161.167 Y152.759 E13.96182
G1 X161.871 Y152.789 E13.97507
G1 X162.566 Y152.899 E13.98831
G1 X163.244 Y153.087 E14.00154
G1 X163.897 Y153.351 E14.01479
G1 X164.515 Y153.688 E14.02803
G1 X165.092 Y154.092 E14.04128
G1 X165.619 Y154.559 E14.05453
G1 X166.089 Y155.082 E14.06776
G1 X166.497 Y155.656 E14.081
G1 X166.838 Y156.272 E14.09425
G1 X167.106 Y156.923 E14.10749
G1 X167.299 Y157.6 E14.12073
G1 X167.414 Y158.294 E14.13397
G1 X167.45 Y158.958 E14.14647
G1 X167.45 Y172.205 E14.39566
G1 X167.41 Y172.908 E14.4089
G1 X167.291 Y173.602 E14.42215
G1 X167.093 Y174.277 E14.43538
G1 X166.821 Y174.926 E14.44862
G1 X166.476 Y175.54 E14.46186
G1 X166.065 Y176.111 E14.4751
G1 X165.683 Y176.54 E14.4859
G1 X162.028 Y180.278 E14.58424
G1 X160.513 Y183.994 E14.65973
G1 X160.513 Y188.006 E14.7352
G1 X162.028 Y191.722 E14.81068
G1 X165.683 Y195.46 E14.90903
G1 X166.146 Y195.991 E14.92228
G1 X166.545 Y196.57 E14.9355
G1 X166.877 Y197.191 E14.94875
G1 X167.136 Y197.846 E14.962
G1 X167.319 Y198.526 E14.97525
G1 X167.423 Y199.222 E14.98848
G1 X167.45 Y199.795 E14.99927
G1 X167.45 Y213.042 E15.24846
G1 X167.41 Y213.745 E15.2617
G1 X167.291 Y214.439 E15.27495
G1 X167.093 Y215.114 E15.28818
G1 X166.821 Y215.763 E15.30142
G1 X166.476 Y216.377 E15.31466
G1 X166.065 Y216.948 E15.3279
G1 X165.591 Y217.469 E15.34115
G1 X165.061 Y217.933 E15.3544
G1 X164.482 Y218.333 E15.36764
G1 X163.861 Y218.665 E15.38088
G1 X163.207 Y218.925 E15.39412
G1 X162.527 Y219.109 E15.40737
G1 X161.831 Y219.215 E15.42061
G1 X161.128 Y219.241 E15.43385
G1 X160.426 Y219.187 E15.44709
G1 X159.735 Y219.054 E15.46033
G1 X159.097 Y218.856 E15.47289
G1 X150.31 Y215.603 E15.64915
G1 X149.665 Y215.322 E15.66238
G1 X149.212 Y215.068 E15.67215
G1 X148.91 Y214.882 E15.67882
G1 X148.137 Y214.32 E15.6968
G1 X141.087 Y208.306 E15.87111
G1 X140.578 Y207.819 E15.88436
G1 X140.128 Y207.278 E15.8976
G1 X139.732 Y206.672 E15.91121
G1 X135.011 Y198.436 E16.08979
G1 X134.696 Y197.807 E16.10302
G1 X134.455 Y197.145 E16.11627
G1 X134.283 Y196.423 E16.13023
G1 X132.644 Y187.07 E16.30885
G1 X132.562 Y186.371 E16.32209
G1 X132.56 Y185.667 E16.33533
G1 X132.644 Y184.93 E16.34928
G1 X134.283 Y175.577 E16.5279
G1 X134.444 Y174.891 E16.54115
G1 X134.681 Y174.229 E16.55438
G1 X135.011 Y173.564 E16.56834
G1 X139.732 Y165.328 E16.74691
G1 X140.116 Y164.738 E16.76016
G1 X140.565 Y164.195 E16.77341
G1 X141.09 Y163.692 E16.78709
G0 F3600 X141.349 Y163.996
G1 F1800 X148.448 Y157.947 E16.96253
G1 X148.992 Y157.537 E16.97534
G1 X149.355 Y157.313 E16.98336
G1 X149.668 Y157.136 E16.99013
G1 X150.511 Y156.745 E17.00761
G1 X159.238 Y153.518 E17.18263
G1 X159.89 Y153.32 E17.19545
G1 X160.56 Y153.199 E17.20826
G1 X161.24 Y153.158 E17.22107
G1 X161.919 Y153.197 E17.23386
G1 X162.59 Y153.315 E17.24668
G1 X163.242 Y153.511 E17.25949
G1 X163.867 Y153.782 E17.2723
G1 X164.455 Y154.124 E17.28509
G1 X165 Y154.533 E17.29791
G1 X165.492 Y155.003 E17.31071
G1 X165.927 Y155.527 E17.32352
G1 X166.296 Y156.099 E17.33633
G1 X166.597 Y156.71 E17.34914
G1 X166.823 Y157.352 E17.36194
G1 X166.973 Y158.016 E17.37475
G1 X167.05 Y158.958 E17.39252
G1 X167.05 Y172.205 E17.64171
G1 X167.01 Y172.885 E17.65452
G1 X166.891 Y173.555 E17.66732
G1 X166.694 Y174.207 E17.68013
G1 X166.422 Y174.831 E17.69294
G1 X166.078 Y175.419 E17.70575
G1 X165.668 Y175.963 E17.71857
G1 X165.397 Y176.26 E17.72613
G1 X161.688 Y180.053 E17.82592
G1 X160.113 Y183.917 E17.90441
G1 X160.113 Y188.083 E17.98278
G1 X161.688 Y191.947 E18.06127
G1 X165.397 Y195.74 E18.16106
G1 X165.844 Y196.254 E18.17387
G1 X166.227 Y196.817 E18.18668
G1 X166.542 Y197.42 E18.19948
G1 X166.783 Y198.057 E18.21229
G1 X166.949 Y198.717 E18.22509
G1 X167.036 Y199.393 E18.23791
G1 X167.05 Y199.795 E18.24548
G1 X167.05 Y213.042 E18.49466
G1 X167.01 Y213.722 E18.50747
G1 X166.891 Y214.392 E18.52027
G1 X166.694 Y215.044 E18.53308
G1 X166.422 Y215.668 E18.54589
G1 X166.078 Y216.256 E18.5587
G1 X165.668 Y216.8 E18.57152
G1 X165.197 Y217.291 E18.58432
G1 X164.672 Y217.725 E18.59713
G1 X164.1 Y218.094 E18.60993
G1 X163.488 Y218.393 E18.62275
G1 X162.846 Y218.618 E18.63554
G1 X162.181 Y218.767 E18.64836
G1 X161.504 Y218.836 E18.66116
G1 X160.823 Y218.826 E18.67397
G1 X160.148 Y218.736 E18.68678
G1 X159.236 Y218.481 E18.7046
G1 X150.449 Y215.228 E18.88085
G1 X149.826 Y214.955 E18.89364
G1 X149.421 Y214.727 E18.90238
G1 X149.119 Y214.541 E18.90906
G1 X148.397 Y214.016 E18.92585
G1 X141.347 Y208.002 E19.10016
G1 X140.856 Y207.53 E19.11297
G1 X140.423 Y207.004 E19.12579
G1 X140.079 Y206.473 E19.13769
